icons/desktop/40/flower-40.svg

<svg width="40" height="40" viewBox="0 0 40 40" fill="none" xmlns="http://www.w3.org/2000/svg">
<path d="M20.5 18C21.8807 18 23 19.1193 23 20.5C23 21.8807 21.8807 23 20.5 23C19.1193 23 18 21.8807 18 20.5C18 19.1193 19.1193 18 20.5 18Z" fill="black"/>
<path fill-rule="evenodd" clip-rule="evenodd" d="M20.5 2C24.8293 2 28.4203 5.01889 29.3545 9.05176C29.5263 9.0402 29.7011 9.03418 29.8789 9.03418C34.9163 9.03418 39 13.1178 39 18.1553C38.9999 21.1095 37.5842 23.7021 35.4229 25.3574C36.1946 26.6807 36.6553 28.2174 36.6553 29.8789C36.6553 34.9163 32.5715 38.9999 27.5342 39C24.6986 39 22.1705 37.705 20.5 35.6787C18.8297 37.705 16.3018 39 13.4658 39C8.42848 38.9999 4.34473 34.9163 4.34473 29.8789C4.34474 28.2178 4.80374 26.6806 5.5752 25.3574C3.41443 23.7022 2.00009 21.1085 2 18.1553C2 13.1178 6.08367 9.03418 11.1211 9.03418C11.2985 9.03418 11.4731 9.04024 11.6445 9.05176C12.5787 5.01879 16.1706 2 20.5 2ZM20.5 5C17.2259 5 14.5638 7.58434 14.4131 10.8379C14.3924 11.285 14.1734 11.7001 13.8154 11.9688C13.4572 12.2374 12.9968 12.332 12.5615 12.2266C12.0604 12.1052 11.5887 12.0342 11.1211 12.0342C7.74052 12.0342 5 14.7747 5 18.1553C5.00011 20.5311 6.37371 22.5812 8.38574 23.5957C8.79752 23.8035 9.09043 24.1893 9.18066 24.6416C9.27088 25.0941 9.14845 25.5632 8.84766 25.9131C7.91329 26.9998 7.34475 28.3722 7.34473 29.8789C7.34473 33.2594 10.0853 35.9999 13.4658 36C16.0099 36 18.1923 34.446 19.1152 32.2285L19.1621 32.126C19.4161 31.6252 19.9322 31.3048 20.5 31.3047C21.1056 31.3047 21.6519 31.6695 21.8848 32.2285C22.8088 34.4464 24.9915 36 27.5342 36C30.9147 35.9999 33.6553 33.2594 33.6553 29.8789C33.6553 28.3722 33.0867 26.9998 32.1523 25.9131C31.8516 25.5633 31.7292 25.094 31.8193 24.6416C31.9096 24.1893 32.2025 23.8035 32.6143 23.5957C34.6269 22.58 35.9999 20.5308 36 18.1553C36 14.7747 33.2595 12.0342 29.8789 12.0342C29.4113 12.0342 28.9396 12.1052 28.4385 12.2266C28.0032 12.332 27.5428 12.2374 27.1846 11.9688C26.8266 11.7001 26.6076 11.285 26.5869 10.8379C26.4362 7.58434 23.7741 5 20.5 5Z" fill="black"/>
</svg>

<!-- This Source Code Form is subject to the terms of the Mozilla Public
   - License, v. 2.0. If a copy of the MPL was not distributed with this
   - file, You can obtain one at http://mozilla.org/MPL/2.0/. -->
<svg xmlns="http://www.w3.org/2000/svg" width="40" height="40" fill="context-fill" fill-opacity="context-fill-opacity" viewBox="0 0 40 40">
    <path d="M20.5 18a2.5 2.5 0 1 1 0 5 2.5 2.5 0 0 1 0-5" />
    <path fill-rule="evenodd" d="M20.5 2c4.33 0 7.92 3.019 8.855 7.052q.257-.018.524-.018A9.12 9.12 0 0 1 39 18.155c0 2.954-1.416 5.547-3.577 7.202a8.94 8.94 0 0 1 1.232 4.522A9.12 9.12 0 0 1 27.535 39a9.1 9.1 0 0 1-7.035-3.321A9.1 9.1 0 0 1 13.466 39a9.12 9.12 0 0 1-9.121-9.121c0-1.661.459-3.198 1.23-4.522C3.415 23.702 2 21.11 2 18.155a9.12 9.12 0 0 1 9.121-9.12q.267 0 .524.017C12.579 5.019 16.17 2 20.5 2m0 3c-3.274 0-5.936 2.584-6.087 5.838a1.5 1.5 0 0 1-1.851 1.389 6 6 0 0 0-1.44-.193A6.12 6.12 0 0 0 5 18.155c0 2.376 1.374 4.426 3.386 5.44a1.5 1.5 0 0 1 .462 2.318C7.913 27 7.345 28.373 7.345 29.88a6.118 6.118 0 0 0 11.77 2.35l.047-.103a1.501 1.501 0 0 1 2.723.102 6.12 6.12 0 0 0 11.77-2.35c0-1.506-.568-2.878-1.503-3.965a1.5 1.5 0 0 1 .462-2.317C34.627 22.58 36 20.53 36 18.156c0-3.381-2.74-6.122-6.121-6.122-.468 0-.94.071-1.44.193a1.502 1.502 0 0 1-1.852-1.39C26.437 7.585 23.774 5 20.5 5" clip-rule="evenodd" />
</svg>
